sources/resources/icons/32/file/folder-open.svg

<svg width="32" height="32" viewBox="0 0 32 32" fill="none" xmlns="http://www.w3.org/2000/svg">
<path fill-rule="evenodd" clip-rule="evenodd" d="M9.27074 5.08123C8.97446 5.00381 8.6496 5.00001 7.82191 5.00001H3.7C3.1317 5.00001 2.73554 5.0004 2.42712 5.0256C2.12454 5.05032 1.95069 5.09641 1.81901 5.1635C1.53677 5.30731 1.3073 5.53679 1.16349 5.81903C1.0964 5.95071 1.05031 6.12455 1.02559 6.42713C1.00039 6.73555 1 7.13171 1 7.70001V24.3C1 24.8683 1.00039 25.2645 1.02559 25.5729C1.05031 25.8755 1.0964 26.0493 1.16349 26.181C1.3073 26.4632 1.53677 26.6927 1.81901 26.8365C1.95069 26.9036 2.12454 26.9497 2.42712 26.9744C2.51322 26.9815 2.60615 26.9866 2.70776 26.9903C3.58977 26.9073 4.34579 26.301 4.61028 25.4414L7.67458 15.4824L7.69637 15.4114C7.79861 15.0773 7.88832 14.7841 8.07239 14.5566C8.2333 14.3577 8.44241 14.2032 8.67984 14.1079C8.95145 13.9989 9.258 13.9994 9.60739 13.9999L9.68172 14H29.1935C29.5647 14 29.8769 14 30.1263 14.0226C30.3825 14.0458 30.6405 14.0971 30.8678 14.2464C31.1958 14.462 31.4262 14.7976 31.5097 15.1811C31.5675 15.4469 31.5228 15.706 31.4525 15.9535C31.384 16.1944 31.272 16.4857 31.1387 16.8321L27.7215 25.7169C27.4704 26.3708 27.297 26.8222 26.9922 27.1639C26.7239 27.4648 26.3868 27.6963 26.0096 27.8388C25.5813 28.0006 25.0978 28.0003 24.3973 28L23.5042 28L23.5 28L2.5 28C2.43957 28 2.38164 27.9893 2.32801 27.9696C1.9709 27.9393 1.65637 27.876 1.36502 27.7275C0.894619 27.4878 0.512168 27.1054 0.272484 26.635C0.12159 26.3388 0.058684 26.0187 0.0289093 25.6543C-8.74326e-06 25.3004 -4.7494e-06 24.8633 1.26163e-07 24.3214V7.67861C-4.7494e-06 7.13672 -8.74326e-06 6.69964 0.0289093 6.3457C0.058684 5.98128 0.12159 5.66118 0.272484 5.36504C0.512168 4.89463 0.894619 4.51218 1.36502 4.2725C1.66117 4.1216 1.98126 4.0587 2.34569 4.02892C2.69962 4.00001 3.13669 4.00001 3.67857 4.00001L7.89248 4.00001C8.62648 3.9999 9.08771 3.99983 9.52355 4.11371C9.90915 4.21447 10.2747 4.38035 10.6045 4.6042C10.9772 4.85721 11.2808 5.20435 11.7641 5.75682L12.442 6.53158C12.987 7.15448 13.2038 7.39646 13.4572 7.56845C13.6927 7.72834 13.9538 7.84683 14.2293 7.9188C14.5255 7.99622 14.8504 8.00001 15.6781 8.00001H24.5178C24.9686 8.00001 25.3324 8.00001 25.6283 8.0202C25.9327 8.04097 26.2019 8.08475 26.4567 8.19032C27.0693 8.44405 27.556 8.93073 27.8097 9.54331C27.9153 9.79815 27.959 10.0673 27.9798 10.3717C28 10.6677 28 11.0314 28 11.4823V11.5C28 11.7761 27.7761 12 27.5 12C27.2239 12 27 11.7761 27 11.5C27 11.0272 26.9997 10.6977 26.9821 10.4397C26.9648 10.1863 26.9325 10.0387 26.8858 9.92599C26.7336 9.55845 26.4416 9.26644 26.074 9.11419C25.9613 9.06752 25.8137 9.03518 25.5603 9.01788C25.3023 9.00028 24.9728 9.00001 24.5 9.00001L15.6075 9.00002C14.8735 9.00013 14.4123 9.0002 13.9764 8.88631C13.5908 8.78555 13.2253 8.61967 12.8955 8.39583C12.5228 8.14282 12.2192 7.79567 11.7359 7.2432L11.058 6.46844C10.513 5.84554 10.2962 5.60356 10.0428 5.43157C9.80728 5.27168 9.54617 5.1532 9.27074 5.08123ZM4.82735 27H24.3022C25.1356 27 25.4208 26.9922 25.6563 26.9033C25.8826 26.8178 26.0849 26.6789 26.2459 26.4984C26.4135 26.3104 26.5231 26.047 26.8223 25.2692L30.197 16.4949C30.3408 16.1211 30.436 15.8723 30.4905 15.6802C30.5447 15.4897 30.5383 15.4203 30.5325 15.3937C30.5047 15.2659 30.4279 15.154 30.3186 15.0821C30.2958 15.0672 30.2333 15.0364 30.0361 15.0185C29.8372 15.0005 29.5708 15 29.1704 15H9.68172C9.21371 15 9.12021 15.0087 9.05233 15.036C8.97319 15.0677 8.90348 15.1192 8.84985 15.1855C8.80385 15.2424 8.768 15.3292 8.63036 15.7765L5.56606 25.7355C5.41697 26.22 5.1604 26.6492 4.82735 27Z" fill="white"/>
</svg>

<svg fill="none" viewBox="0 0 32 32" xmlns="http://www.w3.org/2000/svg"><path d="m9.27 5.08c-0.296-0.0774-0.621-0.0812-1.45-0.0812h-4.12c-0.568 0-0.964 3.9e-4 -1.27 0.0256-0.303 0.0247-0.476 0.0708-0.608 0.138-0.282 0.144-0.512 0.373-0.656 0.656-0.0671 0.132-0.113 0.306-0.138 0.608-0.0252 0.308-0.0256 0.705-0.0256 1.27v16.6c0 0.568 3.9e-4 0.964 0.0256 1.27 0.0247 0.303 0.0708 0.476 0.138 0.608 0.144 0.282 0.373 0.512 0.656 0.656 0.132 0.0671 0.306 0.113 0.608 0.138 0.0861 0.0071 0.179 0.0122 0.281 0.0159 0.882-0.083 1.64-0.689 1.9-1.55l3.06-9.96 0.0218-0.071c0.102-0.334 0.192-0.627 0.376-0.855 0.161-0.199 0.37-0.353 0.607-0.449 0.272-0.109 0.578-0.108 0.928-0.108l0.0743 1e-4h19.5c0.371 0 0.683 0 0.933 0.0226 0.256 0.0232 0.514 0.0745 0.742 0.224 0.328 0.216 0.558 0.551 0.642 0.935 0.0578 0.266 0.0131 0.525-0.0572 0.772-0.0685 0.241-0.18 0.532-0.314 0.879l-3.42 8.88c-0.251 0.654-0.424 1.11-0.729 1.45-0.268 0.301-0.605 0.532-0.983 0.675-0.428 0.162-0.912 0.162-1.61 0.161h-0.893-0.0042-21c-0.0604 0-0.118-0.0107-0.172-0.0304-0.357-0.0303-0.672-0.0936-0.963-0.242-0.47-0.24-0.853-0.622-1.09-1.09-0.151-0.296-0.214-0.616-0.244-0.981-0.0289-0.354-0.0289-0.791-0.0289-1.33v-16.6c-4.88e-6 -0.542-8.87e-6 -0.979 0.0289-1.33 0.0298-0.364 0.0927-0.685 0.244-0.981 0.24-0.47 0.622-0.853 1.09-1.09 0.296-0.151 0.616-0.214 0.981-0.244 0.354-0.0289 0.791-0.0289 1.33-0.0289h4.21c0.734-1.1e-4 1.2-1.8e-4 1.63 0.114 0.386 0.101 0.751 0.267 1.08 0.49 0.373 0.253 0.676 0.6 1.16 1.15l0.678 0.775c0.545 0.623 0.762 0.865 1.02 1.04 0.236 0.16 0.497 0.278 0.772 0.35 0.296 0.0774 0.621 0.0812 1.45 0.0812h8.84c0.451 0 0.815 0 1.11 0.0202 0.304 0.0208 0.574 0.0646 0.828 0.17 0.613 0.254 1.1 0.74 1.35 1.35 0.106 0.255 0.149 0.524 0.17 0.828 0.0202 0.296 0.0202 0.66 0.0202 1.11v0.0177c0 0.276-0.224 0.5-0.5 0.5s-0.5-0.224-0.5-0.5c0-0.473-3e-4 -0.802-0.0179-1.06-0.0173-0.253-0.0496-0.401-0.0963-0.514-0.152-0.368-0.444-0.66-0.812-0.812-0.113-0.0467-0.26-0.079-0.514-0.0963-0.258-0.0176-0.588-0.0179-1.06-0.0179l-8.89 1e-5c-0.734 1.1e-4 -1.2 1.8e-4 -1.63-0.114-0.386-0.101-0.751-0.267-1.08-0.49-0.373-0.253-0.676-0.6-1.16-1.15l-0.678-0.775c-0.545-0.623-0.762-0.865-1.02-1.04-0.236-0.16-0.497-0.278-0.772-0.35zm-4.44 21.9h19.5c0.833 0 1.12-0.0078 1.35-0.0967 0.226-0.0855 0.429-0.224 0.59-0.405 0.168-0.188 0.277-0.451 0.576-1.23l3.37-8.77c0.144-0.374 0.239-0.623 0.294-0.815 0.0542-0.19 0.0478-0.26 0.042-0.286-0.0278-0.128-0.105-0.24-0.214-0.312-0.0228-0.0149-0.0853-0.0457-0.282-0.0636-0.199-0.018-0.465-0.0185-0.866-0.0185h-19.5c-0.468 0-0.562 0.0087-0.629 0.036-0.0791 0.0317-0.149 0.0832-0.202 0.15-0.046 0.0569-0.0818 0.144-0.219 0.591l-3.06 9.96c-0.149 0.484-0.406 0.914-0.739 1.26z" clip-rule="evenodd" fill="#000" fill-rule="evenodd"/></svg>
